X: 20078
T: Jimmy McNelis's Highland
R: strathspey
M: 4/4
K: Bminor
Bc|:d/B3/2fB d/f3/2Bd|c/B/AeA ceAc|d/B3/2fB dfBd|c/B/ABc dABc:|
|:d2fd adfe|defd ceBc|dgfd adfd|ceBc dABc:|

